X:0622
M:6/8
L:1/8
Q:3/8=120
K:G
f|gfg efg|fdd def|gfg aga|bge e2f|gfg aga|bge efg|   dcB cBA|BGG G2:|

